X:1
T:First Commandment, 87.87 D
T:First Commandment, 87.87 D
T:William Howard Doane, 1883
T:Public Domain Courtesy of the Cyber Hymnal™
C:William Howard Doane, 1883
Z:Public Domain
Z:Courtesy of the Cyber Hymnal™
%%score ( 1 2 ) 3
L:1/8
Q:1/4=110
M:4/4
K:D
V:1 treble 
V:2 treble 
V:3 bass 
V:1
 [DF]2 [DF]2 [FA][EG][DF][EG] | [FA]4 [Fd]4 | [FA]2 [DF]2 [GB][FA][EG][DF] | [CE]6 z2 | %4
 [DF]2 [DF]2 [FA][EG][DF][EG] | [GB]4 [FA]4 |"^riten." [DF]2 D2 [DG]3 [DF] | [DE]2 [CE]2 D4 | %8
 [GB]3 [GB] [GB][Bd][Ac][GB] | [FA]4 [DF]4 | [DB]3 [G^A] [GB][Bd][=Ac][GB] | [FA]6 z2 | %12
 [DF]2 [DF]2 [FA][EG][DF][EG] | [GB]4 [FA]4 | [DF]2 D2 [DG]3 [DF] | [DE]2 [CE]2 D4 |] %16
V:2
 x8 | x8 | x8 | x8 | x8 | x8 | x2 D2 x4 | x4 D4 | x8 | x8 | x8 | x8 | x8 | x8 | x2 D2 x4 | x4 D4 |] %16
V:3
 [D,A,]2 [D,A,]2 [D,D][D,A,][D,A,][D,A,] | [D,D]4 [D,A,]4 | [D,D]2 [D,A,]2 [D,D][D,D][C,A,][D,A,] | %3
 [A,,A,]6 z2 | [D,A,]2 [D,A,]2 [D,D][D,A,][D,A,][D,A,] | [D,D]4 [D,D]4 | %6
 [D,A,]2 [F,=C]2 [G,B,]3 [D,A,] | [A,,A,]2 [A,,G,]2 [D,F,]4 | [G,,D]3 [G,,D] [G,D][G,D][G,D][G,D] | %9
 [D,D]4 [D,D]4 | [G,D]3 [G,C] [G,C][G,C][G,C][G,C] | [D,D]6 z2 | %12
 [D,A,]2 [D,A,]2 [D,D][D,A,][D,A,][D,A,] | [D,D]4 [D,D]4 | [D,A,]2 [F,=C]2 [G,B,]3 [D,A,] | %15
 [A,,A,]2 [A,,G,]2 [D,F,]4 |] %16

